X: 1873
T: Silver Wattle Waltz
C:June Nichols, Brisbane, for the Wattle Dance
B: australian traditional tunes wiki
M:3/4
L:1/8
R: waltz
Q: 1/4=100
K:G
V:1 
dc|"G"B4d2|g4d2|"C"c3dc2|"G"B4d2|"C"e3fg2|"G"d3cB2|"D"A4F2|D4dc|
"G"B4d2|g4d2|"C"c3dc2|"G"B4d2|"C"e3fg2|"D"f3ga2|"G"g2d2B2|G4 G2|
"D"A3Bc2|c2B2A2|"G"B3cd2|d2c2B2|"C"c3de2|e2d2c2|"D"d4e2|f4dc|
"G"B4d2|g4d2|"C"c3dc2|"G"B4d2|"C"e3fg2|"D"f3ga2|"G"g2d2B2|G4||
% abcbook-tune_id 6342d53a96d3a4287675b455


% abcbook-boost 0
% abcbook-tablature 
% abcbook-transpose 
% abcbook-lastupdated 1665324389669
% abcbook-soundfonts 
% abcbook-repeats 1


